svg/clipboard_text_search_outline.svg

<svg xmlns="http://www.w3.org/2000/svg" viewBox="0 0 24 24"><path d="M17 9h-.5zM7 15h3c.08-.68.23-1.36.5-2H7zm4.9-4.1A6.53 6.53 0 0 1 16.5 9H7v2h4.82c.03-.03.05-.06.08-.1m0 9.2c.36.35.75.64 1.16.9H5a2 2 0 0 1-2-2V5c0-1.1.9-2 2-2h4.18c.32-.84.96-1.5 1.82-1.8 1.53-.56 3.25.24 3.82 1.8H19a2 2 0 0 1 2 2v5.82a6.4 6.4 0 0 0-2-1.32V5h-2v2H7V5H5v14h6.03c.24.39.54.76.87 1.1M11 4c0 .55.45 1 1 1s1-.45 1-1-.45-1-1-1-1 .45-1 1m12.39 17L22 22.39l-3.12-3.07c-.69.43-1.51.68-2.38.68-2.5 0-4.5-2-4.5-4.5s2-4.5 4.5-4.5 4.5 2 4.5 4.5c0 .88-.25 1.71-.69 2.4zM19 15.5a2.5 2.5 0 0 0-5 0 2.5 2.5 0 0 0 5 0"/></svg>

<?xml version="1.0" encoding="UTF-8"?><!DOCTYPE svg PUBLIC "-//W3C//DTD SVG 1.1//EN" "http://www.w3.org/Graphics/SVG/1.1/DTD/svg11.dtd"><svg xmlns="http://www.w3.org/2000/svg" xmlns:xlink="http://www.w3.org/1999/xlink" version="1.1" id="mdi-clipboard-text-search-outline" width="24" height="24" viewBox="0 0 24 24"><path d="M17 9H16.5 17M7 15H10C10.08 14.32 10.23 13.64 10.5 13H7V15M11.9 10.9C13.17 9.64 14.84 9 16.5 9H7V11H11.82C11.85 10.97 11.87 10.94 11.9 10.9M11.9 20.1C12.26 20.45 12.65 20.74 13.06 21H5C3.9 21 3 20.11 3 19V5C3 3.9 3.9 3 5 3H9.18C9.5 2.16 10.14 1.5 11 1.2C12.53 .64 14.25 1.44 14.82 3H19C20.11 3 21 3.9 21 5V10.82C20.4 10.24 19.72 9.8 19 9.5V5H17V7H7V5H5V19H11.03C11.27 19.39 11.57 19.76 11.9 20.1M11 4C11 4.55 11.45 5 12 5S13 4.55 13 4 12.55 3 12 3 11 3.45 11 4M23.39 21L22 22.39L18.88 19.32C18.19 19.75 17.37 20 16.5 20C14 20 12 18 12 15.5S14 11 16.5 11 21 13 21 15.5C21 16.38 20.75 17.21 20.31 17.9L23.39 21M19 15.5C19 14.12 17.88 13 16.5 13S14 14.12 14 15.5 15.12 18 16.5 18 19 16.88 19 15.5Z" /></svg>
